assets/subsocialx/logo.svg

<svg width="400" height="400" fill="none" xmlns="http://www.w3.org/2000/svg">
    <path fill="url(#paint0_linear_1624_20)" d="M0 0h400v400H0z"/>
    <circle cx="200" cy="200" r="190" fill="#fff"/>
    <path fill-rule="evenodd" clip-rule="evenodd" d="M400 200c0 110.457-89.543 200-200 200S0 310.457 0 200 89.543 0 200 0s200 89.543 200 200zM199.333 353.333c40.869 0 74-33.131 74-74v-48c0-40.869-33.131-74-74-74-5.736 0-11.32.653-16.681 1.888-3.22.742-4.123 4.715-1.734 6.997l.4.383 42.631 40.717c6.61 6.421 10.718 15.405 10.718 25.349V278c0 19.514-15.82 35.333-35.334 35.333C179.819 313.333 164 297.514 164 278v-16.667a4 4 0 00-4-4h-30.667a4 4 0 00-4 4v18c0 40.869 33.131 74 74 74zm-74.015-236.681c0-40.87 33.131-74 74-74s74 33.13 74 74v18.015a4 4 0 01-4 4h-30.666a4 4 0 01-4-4v-16.682c0-19.514-15.82-35.333-35.334-35.333-19.514 0-35.333 15.819-35.333 35.333v45.333c0 9.944 4.107 18.928 10.718 25.349l42.63 40.717.401.383c2.389 2.282 1.485 6.255-1.734 6.997a74.24 74.24 0 01-16.682 1.888c-40.869 0-74-33.131-74-74v-48z" fill="url(#paint0_linear_1624_20)"/>
    <defs>
        <linearGradient id="paint0_linear_1624_20" x1="200" y1="0" x2="200" y2="400" gradientUnits="userSpaceOnUse">
            <stop stop-color="#720497"/>
            <stop offset="1"/>
        </linearGradient>
    </defs>
</svg>

<svg width="400" height="400" viewBox="0 0 400 400" fill="none" xmlns="http://www.w3.org/2000/svg">
<circle cx="200" cy="200" r="200" fill="white"/>
<path fill-rule="evenodd" clip-rule="evenodd" d="M400 200C400 310.457 310.457 400 200 400C89.5431 400 0 310.457 0 200C0 89.5431 89.5431 0 200 0C310.457 0 400 89.5431 400 200ZM199.333 353.333C240.202 353.333 273.333 320.202 273.333 279.333V231.333C273.333 190.464 240.202 157.333 199.333 157.333C193.597 157.333 188.013 157.986 182.652 159.221C179.432 159.963 178.529 163.936 180.918 166.218L181.318 166.601L223.949 207.318C230.559 213.739 234.667 222.723 234.667 232.667V278C234.667 297.514 218.847 313.333 199.333 313.333C179.819 313.333 164 297.514 164 278V261.333C164 259.124 162.209 257.333 160 257.333H129.333C127.124 257.333 125.333 259.124 125.333 261.333V279.333C125.333 320.202 158.464 353.333 199.333 353.333ZM125.318 116.652C125.318 75.7826 158.449 42.6517 199.318 42.6517C240.187 42.6517 273.318 75.7826 273.318 116.652V134.667C273.318 136.876 271.527 138.667 269.318 138.667H238.652C236.442 138.667 234.652 136.876 234.652 134.667V117.985C234.652 98.4709 218.832 82.6517 199.318 82.6517C179.804 82.6517 163.985 98.4709 163.985 117.985V163.318C163.985 173.262 168.092 182.246 174.703 188.667L217.333 229.384L217.734 229.767C220.123 232.049 219.219 236.022 216 236.764C210.639 237.999 205.055 238.652 199.318 238.652C158.449 238.652 125.318 205.521 125.318 164.652V116.652Z" fill="url(#paint0_linear_1624_20)"/>
<defs>
<linearGradient id="paint0_linear_1624_20" x1="200" y1="0" x2="200" y2="400" gradientUnits="userSpaceOnUse">
<stop stop-color="#720497"/>
<stop offset="1"/>
</linearGradient>
</defs>
</svg>
